components/Company/logos/logo-nasdaq.svg

<svg height="140" viewBox="0 0 400 140" width="400" xmlns="http://www.w3.org/2000/svg" xmlns:xlink="http://www.w3.org/1999/xlink"><mask id="a" fill="#fff"><path d="m0 0h33.0334914v53h-33.0334914z" fill="#fff" fill-rule="evenodd"/></mask><mask id="b" fill="#fff"><path d="m0 .03490702h59v71.96082358h-59z" fill="#fff" fill-rule="evenodd"/></mask><mask id="c" fill="#fff"><path d="m0 0h59v73.5581765h-59z" fill="#fff" fill-rule="evenodd"/></mask><g fill="none" fill-rule="nonzero" transform="translate(30 22)"><path d="m252.635764 73c-11.639044 0-18.871392-6.7203758-18.871392-17.5527622 0-11.2422725 6.673814-18.2366361 17.420085-18.2366361h.901569c1.347957 0 3.203871.043838 5.739261.3594721v-13.5700738h7.590776v47.7769179s-7.212557 1.2230821-12.780299 1.2230821m-.068168-29.831805c-7.353289 0-10.928783 3.9563856-10.928783 12.0905391 0 7.303422 4.314341 11.8428539 11.245432 11.8428539 1.332564 0 2.858636-.0876761 4.938843-.2652203v-23.1815701c-2.078008-.3331693-3.753608-.4866026-5.255492-.4866026m-103.909199 28.7358533-20.505212-35.6688436-.006596 35.6688436h-7.146589v-45.1554015h10.005224l20.505212 35.3510177-.008796-35.3510177h7.241144v45.1554015zm65.315422.6948334c-3.452352 0-7.052034-.385775-11.337788-1.2077388l-.463978-.0876761v-6.3082979l.677276.1446656c3.779996.8044285 7.043238 1.4904943 10.30868 1.4904943 2.636541 0 8.778209-.4120778 8.778209-4.2807873 0-3.244017-4.243974-4.0594051-7.652347-4.7104004l-.215497-.043838c-.637696-.1183628-1.238009-.2389175-1.743768-.3660479-5.000413-1.293223-10.335066-3.2374413-10.335066-9.9161709 0-6.5143368 5.171931-10.2471483 14.192025-10.2471483 4.329733 0 7.472034.4602997 9.998627.8373071l1.227015.1797361v6.1219861l-.653089-.1183628c-2.858635-.5238649-6.209835-1.0630731-9.431298-1.0630731-3.58209 0-7.832661.6685305-7.832661 3.8445985 0 2.6368598 3.47874 3.3908746 7.507217 4.265444 5.633711 1.2143145 12.617577 2.7398792 12.617577 10.4027734 0 7.0294342-5.695282 11.0625364-15.641134 11.0625364m72.752272 0c-7.85685 0-15.133176-1.3808991-15.133176-11.3803624 0-10.8828002 11.252029-10.8828002 17.978618-10.8828002.668481 0 3.830571.1468575 4.800308.1885037-.008796-6.1044509-.085759-7.5598748-8.967319-7.5598748-3.52052 0-7.430253.6926415-10.882605 1.3107582l-.659685.1183628v-6.0277343l.444187-.0942518c4.00209-.8110043 7.861248-1.2055469 11.79517-1.2055469 8.606692 0 15.898411.86361 15.898411 11.5074928v23.2122567l-.52335.0591814c-5.961355.6663386-10.693496.7540148-14.74836.7540148m2.654133-16.877656c-6.486904 0-10.506585.951286-10.506585 5.6857973 0 5.4797585 5.127952 5.9334825 9.939256 5.9334825 1.794343 0 5.024601-.2301499 6.01193-.3002908v-11.1304853c-1.389737-.0591814-5.00701-.1885037-5.444601-.1885037m-109.166889 16.877656c-7.867845 0-15.141972-1.3808991-15.141972-11.3803624 0-10.8828002 11.252028-10.8828002 17.976419-10.8828002.670679 0 3.839367.1468575 4.811303.1885037-.008796-6.1044509-.094555-7.5598748-8.976115-7.5598748-3.522719 0-7.432453.6926415-10.884805 1.3107582l-.659685.1183628v-6.0277343l.455183-.0942518c3.877613-.7992207 7.826735-1.2031492 11.786374-1.2055469 8.604493 0 15.898411.86361 15.898411 11.5074928v23.2122567l-.525549.0591814c-5.959156.6663386-10.693496.7540148-14.739564.7540148m2.645337-16.877656c-6.484705 0-10.49559.951286-10.49559 5.6857973 0 5.4797585 5.119156 5.9334825 9.93046 5.9334825 1.803139 0 5.033397-.2301499 6.020726-.3002908v-11.1304853c-1.400732-.0591814-5.015806-.1885037-5.453397-.1885037" fill="#231f20"/><path d="m25.2625862 52.6201667v-14.9239167c-2.9610776.4151667-4.5328448.4151667-5.8034483.4151667-3.0072413 0-6.3464224-.655875-8.9315948-1.7512084-5.78806034-2.418125-9.23935344-8.5572916-9.23935344-16.4344166 0-3.9308334.95405172-11.11895837 7.33344827-14.99237503 3.20288797-1.92125 6.98172417-2.74275 12.66646547-2.74275 2.0334052 0 4.78125.15458333 7.434569.30916666l4.310819.22525v46.43683337zm-4.5416379-44.42504262c-7.7115517-.00220741-11.62008623 3.95070922-11.62008623 11.73066762 0 10.017 5.82982763 12.1215416 10.73198273 12.1215416 1.1936638 0 2.5346121 0 5.5044828-.3798333v-23.25595833c-2.3257759-.15458334-3.4007328-.21641759-4.6185776-.21641759z" fill="#231f20" mask="url(#a)" transform="translate(306 35)"/><g fill="#0996c7"><path d="m30.6188148.03490702-24.95044443 68.43957778c-.62949311 1.71945-2.18770723 2.9286078-4.012 3.1132699v.0327254h26.37518523c2.065 0 3.8328148-1.311195 4.4905555-3.1438136l24.9591852-68.44175948z" mask="url(#b)" transform="translate(57)"/><path d="m56.5410164 70c1.5321659 0 2.8739056-.7663806 3.6947088-1.9269626.0853635-.1211234.3852303-.543954.5975447-1.1187394l9.1667301-25.3522211-5.3625809-14.8056794c-.6360917-1.5267906-2.0448669-2.5866106-3.6802882-2.768677-1.6354214-.1820664-3.240402.5422416-4.1928561 1.8921843-.0875523.1211233-.4443281.6606729-.5975447 1.1187394l-9.1667301 25.3434121 5.3866578 14.86514c.7141908 1.6699458 2.3474643 2.7522023 4.1543586 2.7528037"/><path d="m58.2745185 2.14164706h-26.6658148c-2.065 0-3.8328148 1.30152941-4.4992963 3.13847059l-24.95044444 68.27588235h26.86248144l24.9526297-68.27370588c.6621311-1.81677159 2.3615015-3.05439441 4.3004444-3.13194118z" mask="url(#c)" transform="translate(0 22)"/></g></g></svg>

<?xml version="1.0" encoding="UTF-8"?>
<svg width="400px" height="140px" viewBox="0 0 400 140" version="1.1" xmlns="http://www.w3.org/2000/svg" xmlns:xlink="http://www.w3.org/1999/xlink">
    <title>Artboard</title>
    <defs>
        <polygon id="path-1" points="0 0 33.0334914 0 33.0334914 53 0 53"></polygon>
        <polygon id="path-3" points="0 0.0349070209 59 0.0349070209 59 71.9957306 0 71.9957306"></polygon>
        <polygon id="path-5" points="0 0 59 0 59 73.5581765 0 73.5581765"></polygon>
    </defs>
    <g id="Artboard" stroke="none" stroke-width="1" fill="none" fill-rule="evenodd">
        <g id="NASDAQ_Logo" transform="translate(30.000000, 22.000000)">
            <path d="M252.635764,73 C240.99672,73 233.764372,66.2796242 233.764372,55.4472378 C233.764372,44.2049653 240.438186,37.2106017 251.184457,37.2106017 L252.086026,37.2106017 C253.433983,37.2106017 255.289897,37.2544397 257.825287,37.5700738 L257.825287,24 L265.416063,24 L265.416063,71.7769179 C265.416063,71.7769179 258.203506,73 252.635764,73 M252.567596,43.168195 C245.214307,43.168195 241.638813,47.1245806 241.638813,55.2587341 C241.638813,62.5621561 245.953154,67.101588 252.884245,67.101588 C254.216809,67.101588 255.742881,67.0139119 257.823088,66.8363677 L257.823088,43.6547976 C255.74508,43.3216283 254.06948,43.168195 252.567596,43.168195 M148.658397,71.9040483 L128.153185,36.2352047 L128.146589,71.9040483 L121,71.9040483 L121,26.7486468 L131.005224,26.7486468 L151.510436,62.0996645 L151.50164,26.7486468 L158.742784,26.7486468 L158.742784,71.9040483 L148.658397,71.9040483 Z M213.973819,72.5988817 C210.521467,72.5988817 206.921785,72.2131067 202.636031,71.3911429 L202.172053,71.3034668 L202.172053,64.9951689 L202.849329,65.1398345 C206.629325,65.944263 209.892567,66.6303288 213.158009,66.6303288 C215.79455,66.6303288 221.936218,66.218251 221.936218,62.3495415 C221.936218,59.1055245 217.692244,58.2901364 214.283871,57.6391411 L214.068374,57.5953031 C213.430678,57.4769403 212.830365,57.3563856 212.324606,57.2292552 C207.324193,55.9360322 201.98954,53.9918139 201.98954,47.3130843 C201.98954,40.7987475 207.161471,37.065936 216.181565,37.065936 C220.511298,37.065936 223.653599,37.5262357 226.180192,37.9032431 L227.407207,38.0829792 L227.407207,44.2049653 L226.754118,44.0866025 C223.895483,43.5627376 220.544283,43.0235294 217.32282,43.0235294 C213.74073,43.0235294 209.490159,43.6920599 209.490159,46.8681279 C209.490159,49.5049877 212.968899,50.2590025 216.997376,51.1335719 C222.631087,52.3478864 229.614953,53.8734511 229.614953,61.5363453 C229.614953,68.5657795 223.919671,72.5988817 213.973819,72.5988817 M286.726091,72.5988817 C278.869241,72.5988817 271.592915,71.2179826 271.592915,61.2185193 C271.592915,50.3357191 282.844944,50.3357191 289.571533,50.3357191 C290.240014,50.3357191 293.402104,50.4825766 294.371841,50.5242228 C294.363045,44.4197719 294.286082,42.964348 285.404522,42.964348 C281.884002,42.964348 277.974269,43.6569895 274.521917,44.2751062 L273.862232,44.393469 L273.862232,38.3657347 L274.306419,38.2714829 C278.308509,37.4604786 282.167667,37.065936 286.101589,37.065936 C294.708281,37.065936 302,37.929546 302,48.5734288 L302,71.7856855 L301.47665,71.8448669 C295.515295,72.5112055 290.783154,72.5988817 286.72829,72.5988817 M289.382423,55.7212257 C282.895519,55.7212257 278.875838,56.6725117 278.875838,61.407023 C278.875838,66.8867815 284.00379,67.3405055 288.815094,67.3405055 C290.609437,67.3405055 293.839695,67.1103556 294.827024,67.0402147 L294.827024,55.9097294 C293.437287,55.850548 289.820014,55.7212257 289.382423,55.7212257 M180.215534,72.5988817 C172.347689,72.5988817 165.073562,71.2179826 165.073562,61.2185193 C165.073562,50.3357191 176.32559,50.3357191 183.049981,50.3357191 C183.72066,50.3357191 186.889348,50.4825766 187.861284,50.5242228 C187.852488,44.4197719 187.766729,42.964348 178.885169,42.964348 C175.36245,42.964348 171.452716,43.6569895 168.000364,44.2751062 L167.340679,44.393469 L167.340679,38.3657347 L167.795862,38.2714829 C171.673475,37.4722622 175.622597,37.0683337 179.582236,37.065936 C188.186729,37.065936 195.480647,37.929546 195.480647,48.5734288 L195.480647,71.7856855 L194.955098,71.8448669 C188.995942,72.5112055 184.261602,72.5988817 180.215534,72.5988817 M182.860871,55.7212257 C176.376166,55.7212257 172.365281,56.6725117 172.365281,61.407023 C172.365281,66.8867815 177.484437,67.3405055 182.295741,67.3405055 C184.09888,67.3405055 187.329138,67.1103556 188.316467,67.0402147 L188.316467,55.9097294 C186.915735,55.850548 183.300661,55.7212257 182.86307,55.7212257" id="Shape" fill="#231F20" fill-rule="nonzero"></path>
            <g id="Clipped" transform="translate(306.000000, 35.000000)">
                <mask id="mask-2" fill="white">
                    <use xlink:href="#path-1"></use>
                </mask>
                <g id="a"></g>
                <path d="M25.2625862,52.6201667 L25.2625862,37.69625 C22.3015086,38.1114167 20.7297414,38.1114167 19.4591379,38.1114167 C16.4518966,38.1114167 13.1127155,37.4555417 10.5275431,36.3602083 C4.73948276,33.9420833 1.28818966,27.8029167 1.28818966,19.9257917 C1.28818966,15.9949583 2.24224138,8.80683333 8.62163793,4.93341667 C11.8245259,3.01216667 15.6033621,2.19066667 21.2881034,2.19066667 C23.3215086,2.19066667 26.0693534,2.34525 28.7226724,2.49983333 L33.0334914,2.72508333 L33.0334914,49.1619167 L25.2625862,52.6201667 Z M20.7209483,8.19512408 C13.0093966,8.19291667 9.10086207,12.1458333 9.10086207,19.9257917 C9.10086207,29.9427917 14.9306897,32.0473333 19.8328448,32.0473333 C21.0265086,32.0473333 22.3674569,32.0473333 25.3373276,31.6675 L25.3373276,8.41154167 C23.0115517,8.25695833 21.9365948,8.19512408 20.71875,8.19512408 L20.7209483,8.19512408 Z" id="Shape" fill="#231F20" fill-rule="nonzero" mask="url(#mask-2)"></path>
            </g>
            <g id="Clipped" transform="translate(57.000000, 0.000000)">
                <mask id="mask-4" fill="white">
                    <use xlink:href="#path-3"></use>
                </mask>
                <g id="c"></g>
                <path d="M30.6188148,0.0349070209 L5.66837037,68.4744848 C5.03887726,70.1939348 3.48066314,71.4030926 1.65637037,71.5877547 L1.65637037,71.6204801 L28.0315556,71.6204801 C30.0965556,71.6204801 31.8643704,70.3092851 32.5221111,68.4766665 L57.4812963,0.0349070209 L30.6188148,0.0349070209 Z" id="Path" fill="#0996C7" fill-rule="nonzero" mask="url(#mask-4)"></path>
            </g>
            <path d="M56.5410164,70 C58.0731823,70 59.414922,69.2336194 60.2357252,68.0730374 C60.3210887,67.951914 60.6209555,67.5290834 60.8332699,66.954298 L70,41.6020769 L64.6374191,26.7963975 C64.0013274,25.2696069 62.5925522,24.2097869 60.9571309,24.0277205 C59.3217095,23.8456541 57.7167289,24.5699621 56.7642748,25.9199048 C56.6767225,26.0410281 56.3199467,26.5805777 56.1667301,27.0386442 L47,52.3820563 L52.3866578,67.2471963 C53.1008486,68.9171421 54.7341221,69.9993986 56.5410164,70" id="Path" fill="#0996C7" fill-rule="nonzero"></path>
            <g id="Clipped" transform="translate(0.000000, 22.000000)">
                <mask id="mask-6" fill="white">
                    <use xlink:href="#path-5"></use>
                </mask>
                <g id="e"></g>
                <path d="M58.2745185,2.14164706 L31.6087037,2.14164706 C29.5437037,2.14164706 27.7758889,3.44317647 27.1094074,5.28011765 L2.15896296,73.556 L29.0214444,73.556 L53.9740741,5.28229412 C54.6362052,3.46552253 56.3355756,2.22789971 58.2745185,2.15035294 L58.2745185,2.14164706 Z" id="Path" fill="#0996C7" fill-rule="nonzero" mask="url(#mask-6)"></path>
            </g>
        </g>
    </g>
</svg>
